packages/icons/raw/imported/GenericNews.svg

<svg width="32" height="32" viewBox="0 0 32 32" fill="none" xmlns="http://www.w3.org/2000/svg">
<path d="M12.4464 16.7069H14.7083M12.4464 19.6824H14.7083M12.4464 13.6759H22.0972M12.4464 10.9695H22.0972M7.96032 24.4089H23.1151C24.1706 24.4089 25 23.5819 25 22.5294V8.37589C25 8.15036 24.8492 8 24.623 8H9.92064C9.69444 8 9.54365 8.15036 9.54365 8.37589V22.5294C9.54365 23.5819 8.75198 24.4089 7.77183 24.4089C6.79167 24.4089 6 23.5819 6 22.5294V10.4433M21.9086 21.7877H17.6487C17.4225 21.7877 17.2717 21.6373 17.2717 21.4118V16.7958C17.2717 16.5703 17.4225 16.4199 17.6487 16.4199H21.9086C22.1348 16.4199 22.2856 16.5703 22.2856 16.7958V21.4118C22.2856 21.6373 22.1348 21.7877 21.9086 21.7877Z" stroke="black" stroke-miterlimit="10" stroke-linecap="round"/>
</svg>

<svg width="32" height="32" fill="none" xmlns="http://www.w3.org/2000/svg"><path d="M12.446 16.707h2.262m-2.262 2.975h2.262m-2.262-6.006h9.651m-9.65-2.707h9.65M7.96 24.41h15.155A1.864 1.864 0 0 0 25 22.529V8.376C25 8.15 24.85 8 24.623 8H9.921c-.227 0-.377.15-.377.376v14.153c0 1.053-.792 1.88-1.772 1.88S6 23.582 6 22.529V10.443m15.909 11.345h-4.26c-.227 0-.377-.15-.377-.376v-4.616c0-.226.15-.376.377-.376h4.26c.226 0 .377.15.377.376v4.616c0 .225-.151.376-.377.376Z" stroke="#000" stroke-miterlimit="10" stroke-linecap="round"/></svg>
